X:59
T:Polska ur Petter Dufvas notbok (Ma6-59)
R:Polska
O:Verkelbäck, Småland
B:Petter Dufvas notbok
S:Petter Dufva
N:Smus Ma6 bild 59 Måns på Långbacken
M:3/4
L:1/8
K:D
A2 d2 fd | Bdcdec | A2 d2 fd | Bc A2 A2 :|:
fg fd/2f/2 g2 | ef ed/2e/2 f2 | fg fd/2f/2 g2 | ef ed/2e/2 f2 | A2 d2 fd | ge/2c/2 d2 D2 :|

